X: 9430
T: Danny Green's
R: polka
M: 2/4
K: Dmajor
|:AF AF/A/|BG Bc/B/|AB cd|ed c/d/c/B/|
AF AF/A/|BG Bc/B/|AB cd|ed d2:|
|:fd fg/f/|ec ef/e/|dc Bc|BA FA|
fd fg/f/|ec ef/e/|dc Bc|ed d2:|

